img/main/lady.svg

<?xml version="1.0" encoding="UTF-8"?>
<svg fill="none" viewBox="0 0 503 819" xmlns="http://www.w3.org/2000/svg">
<path d="m360.44 174.17c3.632 2.906-2.15 3.763-4.838 3.226-1.613-7.258-20.965 2.419-16.933 12.901 3.225-0.645 7.794 3.494 9.676 5.645-4.516-1.291-12.364 0.537-16.127 1.612-3.226-16.127 16.127-33.06 28.222-23.384z" fill="#03191A"/>
<path d="m179.35 239.4c-1.286-2.831-1.386-6.605-1.223-8.8 0.027-0.367-0.331-0.671-0.693-0.602-2.819 0.542-10.444 1.09-15.049 1.363-0.432 0.025-0.678 0.593-0.476 0.975 1.027 1.951 1.61 5.62 1.748 8.366 0.023 0.445 0.658 0.775 1.075 0.618 2.831-1.063 9.74-1.435 14.08-1.117 0.413 0.03 0.709-0.426 0.538-0.803z" fill="#03191A"/>
<path d="m166.11 204.01c1.935-7.096 24.728 4.301 36.286 11.289-13.708-1.613-37.898 0-43.543 4.838-3.87-17.417 0.806-18.546 7.257-16.127z" fill="#03191A"/>
<path d="m182.24 182.24c2.652-6.191-12.095-8.064-11.289-3.226 0.367 2.197 6.774 0.484 4.839 2.419-2.419 2.42 4.031 6.451 6.45 0.807z" fill="#03191A"/>
<path d="m257.23 153.21c7.741-17.417 33.867-11.02 45.962-5.644l-13.708-13.708s-51.338-22.695-49.187-12.096c11.289 55.639-41.124 43.543-28.222 45.962 12.901 2.419 37.414 2.903 45.155-14.514z" fill="#03191A"/>
<path d="m350.76 219.33c-4.515 5.16-5.644 45.155-5.644 64.508 39.511-19.353 76.872-57.789 88.698-71.765 6.989-9.945 18.385-32.738 8.064-44.35 4.032-4.569 12.256-17.739 12.901-33.866 0.807-20.159-2.419-44.349-29.834-77.41-27.416-33.06-50.8-33.867-60.477-35.479-7.74-1.2901-16.127-2.1502-19.352-2.419-17.74-17.74-21.734-18.546-56.444-18.546-39.511 4.1287e-5 -63.164 12.364-72.572 20.965-2.956 3.2254-9.192 12.418-10.482 23.384s3.225 9.9449 5.644 8.0634c1.075-1.3439 4.516-5.1605 9.677-9.6761 5.16-4.5155 13.439-0.8063 16.933 1.6127l8.063 6.4508c18.546 13.708 20.159 54.685 66.927 88.698 7.096 5.161 2.957 32.254 0 45.156 10.483-14.515 45.156-33.061 54.025-8.87 8.87 24.19-10.482 37.092-16.127 43.543z" fill="#021112"/>
<path d="m350.76 219.33c-4.515 5.16-5.644 45.155-5.644 64.508l-7.257 70.152c-11.02 4.032-34.512 12.579-40.318 14.514-7.257 2.419-12.095 0-8.063-5.644l34.673-72.572c17.739-37.898-19.353-48.918-37.092-10.482-9.676 20.965-26.61 41.124-33.06 47.574-5.161 5.161-11.289 7.526-13.708 8.064h-12.096c-3.225-37.092-8.063-50.8-23.384-55.638-12.256-3.871-1.881-5.376 4.838-5.645 16.934 2.419 55.638-14.044 74.184-21.771 9.677-4.032 16.934-13.708 17.74-18.546s3.225-12.095 3.225-4.032c4.032 18.546 16.934 9.676 20.965 4.032 3.226-4.516 18.009-11.558 24.997-14.514z" fill="#03191A"/>
<path d="m345.12 283.83l-7.257 70.153v8.87c0 7.741-4.3 12.364-6.45 13.707-4.516 1.936-28.76 39.512-40.318 58.058-31.447 51.068-95.31 155.46-99.18 164.5-4.839 11.288-10.483 20.158-12.902 5.644-1.935-11.611-8.332-62.358-11.289-86.279-1.935-21.288 5.107-44.887 8.87-54.026 11.02-26.609 35.479-82.892 45.155-95.149 9.677-12.256 8.332-27.684 6.451-33.866-1.638-18.836-3.692-31.641-7.323-40.318-26.588 2.419-85.085 13.87-106.37 40.318-5.645 5.644-0.807 7.257 1.612 8.87l21.772 14.514c4.031 3.225 5.644 6.451 0 8.87-4.516 1.935-25.535 8.869-35.48 12.095-22.577 8.87-30.995 15.667-45.962 31.447-21.03 22.174-25.699 40.94-34.673 70.153-12.973 42.229-8.8698 73.377-7.2571 112.89 1.2902 31.609-5.3756 76.604-8.8698 95.149-4.0317 27.416-5.6444 90.311-5.6444 108.05v20.965h481.39s28.225-111.28 20.161-224.16c-8.063-112.89-34.675-183.04-92.732-226.58-2.688-1.613-6.452-4.838 0-4.838h20.965c-5.376-24.728-29.836-75.152-84.667-79.023z" fill="url(#a)"/>
<path d="m213.23 383.55c31.474 8.503 74.748 7.669 110.11 2.303-4.175 5.679-9.385 13.339-14.606 21.256-35.547 3.89-75.926 3.035-103.83-6.78 2.931-6.155 5.757-11.874 8.333-16.779z" fill="#2DE58D"/>
<path d="m197.1 417.15c26.591 10.118 63.961 13.139 97.631 11.681-1.308 2.072-2.528 4.018-3.633 5.791-2.615 4.246-5.454 8.862-8.464 13.761-33.365 0.636-68.886-3.215-93.2-14.017 2.476-5.653 5.063-11.474 7.666-17.216z" fill="#2DE58D"/>
<path d="m182.7 449.94c23.931 10.611 57.275 15.728 88.682 16.771-3.718 6.065-7.571 12.357-11.485 18.758-30.722-1.63-62.321-7.212-84.439-18.075 0.4-1.095 0.781-2.077 1.133-2.933 1.739-4.198 3.812-9.135 6.109-14.521z" fill="#2DE58D"/>
<path d="m171.31 481.22c21.229 10.874 49.881 18.05 77.846 21.843-3.661 6.001-7.317 12.004-10.911 17.915-25.381-3.81-50.836-10.412-70.35-20.06 0.673-7.009 1.957-13.775 3.415-19.698z" fill="#2DE58D"/>
<path d="m167.69 518.1c16.502 9.16 37.654 16.2 59.483 21.123-3.684 6.086-7.223 11.949-10.544 17.471-16.509-3.945-32.449-9.116-46.071-15.519-1.083-8.592-2.072-16.531-2.834-22.691-0.011-0.128-0.023-0.256-0.034-0.384z" fill="#2DE58D"/>
<path d="m172.74 558.41c10.887 4.748 23.03 8.769 35.63 12.062-4.049 6.792-7.537 12.7-10.258 17.396-7.781-2.145-15.344-4.575-22.496-7.288-0.906-6.859-1.893-14.486-2.876-22.17z" fill="#2DE58D"/>
<path d="m424.95 56.444c-27.416-33.06-50.8-33.867-60.477-35.479-3.255-0.5425-6.624-1.009-9.676-1.3875 4.838 40.092 46.146 147.82 87.994 175.56 3.699-9.732 5.207-20.536-0.908-27.416 4.032-4.569 12.256-17.739 12.901-33.866 0.807-20.159-2.419-44.349-29.834-77.41z" fill="#010D0E"/>
<path d="m254.81 110.47c4.515 2.58 67.733 36.823 98.374 53.219-3.225-0.645-12.095 0.806-14.514 2.419-25.803-12.096-79.022-37.092-85.473-40.318-8.063-4.031-8.063 12.096-10.482 26.61s-19.353 16.933-41.124 16.127c-21.771-0.807-20.965-28.222-20.965-30.641 0-1.936-3.763-0.269-5.645 0.806l-4.838 6.451c2.581-5.161 0.538-13.977-0.806-17.74-6.451-6.451-23.115 4.838-24.19 11.289-0.807 4.838-1.613 20.159-0.807 30.641 0.594 7.718 5.376 8.601 8.064 8.064l0.806 2.419c-1.075 0.268-4.354 0.645-8.87 0-4.515-0.645-3.494-29.298-2.419-43.543-0.269-1.882 1.452-7.096 10.483-12.902 4.3-2.419 14.514-6.612 20.965-4.032l13.708-3.225c4.838-8.063 31.447-11.289 41.93-12.095 10.482-0.806 20.158 3.225 25.803 6.451zm-39.511 52.412c23.384 0.807 23.653-21.771 22.578-33.06-1.613-28.222-24.191-17.74-35.48-14.514-11.289 3.225-18.546 12.095-16.933 24.997 4.032 22.862 6.451 21.771 29.835 22.577z" clip-rule="evenodd" fill="#2DE68D" fill-rule="evenodd"/>
<path d="m237.88 129.82c1.075 11.289 0.806 33.867-22.578 33.06-23.384-0.806-25.803 0.285-29.835-22.577-1.613-12.902 5.644-21.772 16.933-24.997 11.289-3.226 33.867-13.708 35.48 14.514z" fill="#000" fill-opacity=".85"/>
<path d="m152.4 177.4c-2.688 0.537-7.47-0.346-8.064-8.064-0.806-10.482 0-25.803 0.807-30.641 1.075-6.451 17.739-17.74 24.19-11.289 1.344 3.763 3.387 12.579 0.806 17.74-2.688 5.107-9.515 16.288-15.32 20.158-5.806 3.871-4.032 9.677-2.419 12.096z" fill="#000" fill-opacity=".85"/>
<path d="m326.59 244.32c3.245-7.66-6.988-14.514-10.482-18.546-3.225 5.107-12.821 11.007-9.676 18.546 1.893 4.54 4.761 7.872 9.676 8.064 5.161 0.201 8.468-3.308 10.482-8.064z" fill="#2DE58D"/>
<defs>
<linearGradient id="a" x1="251.5" x2="251.5" y1="283.83" y2="818.44" gradientUnits="userSpaceOnUse">
<stop stop-color="#00191B" offset="0"/>
<stop stop-color="#001F21" offset="1"/>
</linearGradient>
</defs>
</svg>

<svg width="503" height="819" viewBox="0 0 503 819" fill="none" xmlns="http://www.w3.org/2000/svg">
<path d="M360.44 174.171C364.072 177.077 358.29 177.934 355.602 177.397C353.989 170.139 334.637 179.816 338.669 190.298C341.894 189.653 346.463 193.792 348.345 195.943C343.829 194.652 335.981 196.48 332.218 197.555C328.992 181.428 348.345 164.495 360.44 174.171Z" fill="#03191A"/>
<path d="M179.352 239.397C178.066 236.566 177.966 232.792 178.129 230.597C178.156 230.23 177.798 229.926 177.436 229.995C174.617 230.537 166.992 231.085 162.387 231.358C161.955 231.383 161.709 231.951 161.911 232.333C162.938 234.284 163.521 237.953 163.659 240.699C163.682 241.144 164.317 241.474 164.734 241.317C167.565 240.254 174.474 239.882 178.814 240.2C179.227 240.23 179.523 239.774 179.352 239.397Z" fill="#03191A"/>
<path d="M166.11 204.006C168.045 196.91 190.838 208.307 202.396 215.295C188.688 213.682 164.498 215.295 158.853 220.133C154.983 202.716 159.659 201.587 166.11 204.006Z" fill="#03191A"/>
<path d="M182.238 182.235C184.89 176.044 170.143 174.171 170.949 179.009C171.316 181.206 177.723 179.493 175.788 181.428C173.369 183.848 179.819 187.879 182.238 182.235Z" fill="#03191A"/>
<path d="M257.228 153.206C264.969 135.789 291.095 142.186 303.19 147.562L289.482 133.854C289.482 133.854 238.144 111.159 240.295 121.758C251.584 177.397 199.171 165.301 212.073 167.72C224.974 170.139 249.487 170.623 257.228 153.206Z" fill="#03191A"/>
<path d="M350.763 219.327C346.248 224.487 345.119 264.482 345.119 283.835C384.63 264.482 421.991 226.046 433.817 212.07C440.806 202.125 452.202 179.332 441.881 167.72C445.913 163.151 454.137 149.981 454.782 133.854C455.589 113.695 452.363 89.5046 424.948 56.4444C397.532 23.3841 374.148 22.5777 364.471 20.965C356.731 19.6749 348.344 18.8148 345.119 18.546C327.379 0.806369 323.385 -3.62679e-05 288.675 0C249.164 4.12866e-05 225.511 12.364 216.103 20.965C213.147 24.1904 206.911 33.3828 205.621 44.3492C204.331 55.3156 208.846 54.2941 211.265 52.4126C212.34 51.0687 215.781 47.2521 220.942 42.7365C226.102 38.221 234.381 41.9302 237.875 44.3492L245.938 50.8C264.484 64.5079 266.097 105.485 312.865 139.498C319.961 144.659 315.822 171.752 312.865 184.654C323.348 170.139 358.021 151.593 366.89 175.784C375.76 199.974 356.408 212.876 350.763 219.327Z" fill="#021112"/>
<path d="M350.764 219.327C346.249 224.487 345.12 264.482 345.12 283.835L337.863 353.987C326.843 358.019 303.351 366.566 297.545 368.501C290.288 370.92 285.45 368.501 289.482 362.857L324.155 290.285C341.894 252.387 304.802 241.367 287.063 279.803C277.387 300.768 260.453 320.927 254.003 327.377C248.842 332.538 242.714 334.903 240.295 335.441H228.199C224.974 298.349 220.136 284.641 204.815 279.803C192.559 275.932 202.934 274.427 209.653 274.158C226.587 276.577 265.291 260.114 283.837 252.387C293.514 248.355 300.771 238.679 301.577 233.841C302.383 229.003 304.802 221.746 304.802 229.809C308.834 248.355 321.736 239.485 325.767 233.841C328.993 229.325 343.776 222.283 350.764 219.327Z" fill="#03191A"/>
<path d="M345.117 283.834L337.86 353.987V362.857C337.86 370.598 333.56 375.221 331.41 376.564C326.894 378.5 302.65 416.076 291.092 434.622C259.645 485.69 195.782 590.085 191.912 599.117C187.073 610.405 181.429 619.275 179.01 604.761C177.075 593.15 170.678 542.403 167.721 518.482C165.786 497.194 172.828 473.595 176.591 464.456C187.611 437.847 212.07 381.564 221.746 369.307C231.423 357.051 230.078 341.623 228.197 335.441C226.559 316.605 224.505 303.8 220.874 295.123C194.286 297.542 135.789 308.993 114.502 335.441C108.857 341.085 113.695 342.698 116.114 344.311L137.886 358.825C141.917 362.05 143.53 365.276 137.886 367.695C133.37 369.63 112.351 376.564 102.406 379.79C79.8286 388.66 71.4106 395.457 56.4445 411.237C35.415 433.411 30.7455 452.177 21.7715 481.39C8.79886 523.619 12.9017 554.767 14.5144 594.278C15.8046 625.887 9.13876 670.882 5.64459 689.427C1.61285 716.843 0.000152588 779.738 0.000152588 797.478V818.443H481.39C481.39 818.443 509.615 707.167 501.551 594.278C493.488 481.39 466.876 411.237 408.819 367.695C406.131 366.082 402.367 362.857 408.819 362.857H429.784C424.408 338.129 399.948 287.705 345.117 283.834Z" fill="url(#paint0_linear)"/>
<path d="M213.23 383.548C244.704 392.051 287.978 391.217 323.337 385.851C319.162 391.53 313.952 399.19 308.731 407.107C273.184 410.997 232.805 410.142 204.897 400.327C207.828 394.172 210.654 388.453 213.23 383.548Z" fill="#2DE58D"/>
<path d="M197.096 417.15C223.687 427.268 261.057 430.289 294.727 428.831C293.419 430.903 292.199 432.849 291.094 434.622C288.479 438.868 285.64 443.484 282.63 448.383C249.265 449.019 213.744 445.168 189.43 434.366C191.906 428.713 194.493 422.892 197.096 417.15Z" fill="#2DE58D"/>
<path d="M182.702 449.935C206.633 460.546 239.977 465.663 271.384 466.706C267.666 472.771 263.813 479.063 259.899 485.464C229.177 483.834 197.578 478.252 175.46 467.389C175.86 466.294 176.241 465.312 176.593 464.456C178.332 460.258 180.405 455.321 182.702 449.935Z" fill="#2DE58D"/>
<path d="M171.307 481.215C192.536 492.089 221.188 499.265 249.153 503.058C245.492 509.059 241.836 515.062 238.242 520.973C212.861 517.163 187.406 510.561 167.892 500.913C168.565 493.904 169.849 487.138 171.307 481.215Z" fill="#2DE58D"/>
<path d="M167.689 518.098C184.191 527.258 205.343 534.298 227.172 539.221C223.488 545.307 219.949 551.17 216.628 556.692C200.119 552.747 184.179 547.576 170.557 541.173C169.474 532.581 168.485 524.642 167.723 518.482C167.712 518.354 167.7 518.226 167.689 518.098Z" fill="#2DE58D"/>
<path d="M172.745 558.408C183.632 563.156 195.775 567.177 208.375 570.47C204.326 577.262 200.838 583.17 198.117 587.866C190.336 585.721 182.773 583.291 175.621 580.578C174.715 573.719 173.728 566.092 172.745 558.408Z" fill="#2DE58D"/>
<path d="M424.948 56.4444C397.532 23.3841 374.148 22.5778 364.471 20.9651C361.216 20.4226 357.847 19.9561 354.795 19.5776C359.633 59.6698 400.941 167.398 442.789 195.136C446.488 185.404 447.996 174.6 441.881 167.72C445.913 163.151 454.137 149.981 454.782 133.854C455.589 113.695 452.363 89.5047 424.948 56.4444Z" fill="#010D0E"/>
<path fill-rule="evenodd" clip-rule="evenodd" d="M254.809 110.47C259.324 113.05 322.542 147.293 353.183 163.689C349.958 163.044 341.088 164.495 338.669 166.108C312.866 154.012 259.647 129.016 253.196 125.79C245.133 121.759 245.133 137.886 242.714 152.4C240.295 166.914 223.361 169.333 201.59 168.527C179.819 167.72 180.625 140.305 180.625 137.886C180.625 135.95 176.862 137.617 174.98 138.692L170.142 145.143C172.723 139.982 170.68 131.166 169.336 127.403C162.885 120.952 146.221 132.241 145.146 138.692C144.339 143.53 143.533 158.851 144.339 169.333C144.933 177.051 149.715 177.934 152.403 177.397L153.209 179.816C152.134 180.084 148.855 180.461 144.339 179.816C139.824 179.171 140.845 150.518 141.92 136.273C141.651 134.391 143.372 129.177 152.403 123.371C156.703 120.952 166.917 116.759 173.368 119.339L187.076 116.114C191.914 108.051 218.523 104.825 229.006 104.019C239.488 103.213 249.164 107.244 254.809 110.47ZM215.298 162.882C238.682 163.689 238.951 141.111 237.876 129.822C236.263 101.6 213.685 112.082 202.396 115.308C191.107 118.533 183.85 127.403 185.463 140.305C189.495 163.167 191.914 162.076 215.298 162.882Z" fill="#2DE68D"/>
<path d="M237.876 129.822C238.951 141.111 238.682 163.689 215.298 162.882C191.914 162.076 189.495 163.167 185.463 140.305C183.85 127.403 191.107 118.533 202.396 115.308C213.685 112.082 236.263 101.6 237.876 129.822Z" fill="black" fill-opacity="0.85"/>
<path d="M152.403 177.397C149.715 177.934 144.933 177.051 144.339 169.333C143.533 158.851 144.339 143.53 145.146 138.692C146.221 132.241 162.885 120.952 169.336 127.403C170.68 131.166 172.723 139.982 170.142 145.143C167.454 150.25 160.627 161.431 154.822 165.301C149.016 169.172 150.79 174.978 152.403 177.397Z" fill="black" fill-opacity="0.85"/>
<path d="M326.589 244.323C329.834 236.663 319.601 229.809 316.107 225.777C312.882 230.884 303.286 236.784 306.431 244.323C308.324 248.863 311.192 252.195 316.107 252.387C321.268 252.588 324.575 249.079 326.589 244.323Z" fill="#2DE58D"/>
<defs>
<linearGradient id="paint0_linear" x1="251.5" y1="283.834" x2="251.5" y2="818.443" gradientUnits="userSpaceOnUse">
<stop stop-color="#00191B"/>
<stop offset="1" stop-color="#001F21"/>
</linearGradient>
</defs>
</svg>
